src/shared/assets/icons/course-icon.svg

<svg width="21" height="22" viewBox="0 0 21 22" fill="none" xmlns="http://www.w3.org/2000/svg">
<path d="M1.5001 0.599998C1.26141 0.600022 1.03251 0.694851 0.863728 0.863629C0.69495 1.03241 0.600122 1.26131 0.600098 1.5V15.9C0.600122 16.1387 0.69495 16.3676 0.863728 16.5364C1.03251 16.7051 1.26141 16.8 1.5001 16.8H7.79834V18.6H4.04717C3.81857 18.6 3.59843 18.6877 3.43193 18.8443L1.64248 20.523C1.34458 20.8011 1.54416 21.3 1.95186 21.3H19.0483C19.456 21.3 19.6556 20.8003 19.3577 20.5213L17.5683 18.8426C17.4009 18.6869 17.1816 18.6 16.953 18.6H13.1983V16.8H19.5001C19.7388 16.8 19.9677 16.7051 20.1365 16.5364C20.3052 16.3676 20.4001 16.1387 20.4001 15.9V1.5C20.4001 1.26131 20.3052 1.03241 20.1365 0.863629C19.9677 0.694851 19.7388 0.600022 19.5001 0.599998H1.5001ZM2.4001 2.4H18.6001V15H2.4001V2.4ZM7.78252 5.09121C7.5487 5.09818 7.32678 5.1959 7.16377 5.36367L4.46377 8.06367C4.29505 8.23246 4.20027 8.46134 4.20027 8.7C4.20027 8.93865 4.29505 9.16754 4.46377 9.33633L7.16377 12.0363C7.2467 12.1227 7.34603 12.1917 7.45595 12.2392C7.56586 12.2867 7.68415 12.3118 7.80389 12.313C7.92363 12.3142 8.04241 12.2915 8.15326 12.2463C8.26412 12.201 8.36484 12.1341 8.44951 12.0494C8.53418 11.9647 8.60111 11.864 8.64637 11.7532C8.69163 11.6423 8.71431 11.5235 8.71309 11.4038C8.71188 11.2841 8.68678 11.1658 8.63927 11.0558C8.59176 10.9459 8.5228 10.8466 8.43643 10.7637L6.37275 8.7L8.43643 6.63633C8.56648 6.50991 8.65531 6.34715 8.69127 6.16938C8.72723 5.99162 8.70865 5.80713 8.63797 5.64011C8.56728 5.47308 8.44778 5.3313 8.29513 5.23336C8.14249 5.13541 7.96381 5.08586 7.78252 5.09121ZM13.1913 5.09121C13.0123 5.09126 12.8373 5.1447 12.6888 5.2447C12.5403 5.3447 12.425 5.48672 12.3576 5.6526C12.2902 5.81848 12.2739 6.00069 12.3106 6.17592C12.3473 6.35115 12.4355 6.51145 12.5638 6.63633L14.6274 8.7L12.5638 10.7637C12.4774 10.8466 12.4084 10.9459 12.3609 11.0558C12.3134 11.1658 12.2883 11.2841 12.2871 11.4038C12.2859 11.5235 12.3086 11.6423 12.3538 11.7532C12.3991 11.864 12.466 11.9647 12.5507 12.0494C12.6354 12.1341 12.7361 12.201 12.8469 12.2463C12.9578 12.2915 13.0766 12.3142 13.1963 12.313C13.316 12.3118 13.4343 12.2867 13.5442 12.2392C13.6542 12.1917 13.7535 12.1227 13.8364 12.0363L16.5364 9.33633C16.7051 9.16754 16.7999 8.93865 16.7999 8.7C16.7999 8.46134 16.7051 8.23246 16.5364 8.06367L13.8364 5.36367C13.7526 5.27746 13.6523 5.20892 13.5415 5.16213C13.4306 5.11533 13.3116 5.09122 13.1913 5.09121Z" fill="white"/>
</svg>

<svg xmlns="http://www.w3.org/2000/svg" width="21" height="22" fill="none"><path fill="#fff" d="M1.5.6a.9.9 0 0 0-.9.9v14.4a.9.9 0 0 0 .9.9h6.298v1.8h-3.75a.899.899 0 0 0-.616.244l-1.79 1.679a.45.45 0 0 0 .31.777h17.096a.45.45 0 0 0 .31-.779l-1.79-1.678a.903.903 0 0 0-.615-.243h-3.755v-1.8H19.5a.9.9 0 0 0 .9-.9V1.5a.9.9 0 0 0-.9-.9h-18Zm.9 1.8h16.2V15H2.4V2.4Zm5.383 2.691a.9.9 0 0 0-.62.273l-2.7 2.7a.9.9 0 0 0 0 1.272l2.7 2.7a.9.9 0 1 0 1.273-1.272L6.373 8.7l2.063-2.064a.9.9 0 0 0-.653-1.545Zm5.408 0a.9.9 0 0 0-.627 1.545L14.627 8.7l-2.063 2.064a.9.9 0 1 0 1.272 1.272l2.7-2.7a.9.9 0 0 0 0-1.272l-2.7-2.7a.899.899 0 0 0-.645-.273Z"/></svg>
